;FilamentType:PLA
;MachineType:MP Cadet
;Extruder0Temperature:200
;BedTemperature:40
;InfillDensity:10
;FLAVOR:Marlin
;TIME:9097
;FilamentUsed: 6628.2
;Layer height: 0.15
;MINX:14.709
;MINY:37.709
;MINZ:0.3
;MAXX:85.291
;MAXY:82.291
;MAXZ:67.95
;Generated with Cura_SteamEngine 4.3.0
M82 ;absolute extrusion mode
;(**** start.gcode for Cadet****)
M104 S150
G28 Z
G28 X Y; Home extruder
G1 X55 Y55 F1000
G1 Z10 F200
G29
G1 Z15 F100
M107 ; Turn off fan
G90 ; Absolute positioning
M82 ; Extruder in absolute mode
M109 S215
G92 E0 ; Reset extruder position
G1 X90 Y6 Z0.27 F2000
G1 X20 Y6 Z0.27 E15 F1000 
G92 E0 ; Reset extruder position

M203 Z5
G92 E0
G92 E0
G1 F2100 E-3
;LAYER_COUNT:452
;LAYER:0
M107
G0 F3600 X81.157 Y38.688 Z0.3
;TYPE:SKIRT
G1 F2100 E0
G1 F1800 X81.828 Y39.106 E0.03747
G1 X82.452 Y39.589 E0.07487
G1 X82.889 Y39.994 E0.10311
G1 X83.006 Y40.111 E0.11095
G1 X83.536 Y40.697 E0.1484
G1 X84.003 Y41.333 E0.18579
G1 X84.404 Y42.013 E0.22321
G1 X84.734 Y42.731 E0.26066
G1 X84.989 Y43.478 E0.29807
G1 X85.168 Y44.247 E0.3355
G1 X85.268 Y45.031 E0.37295
G1 X85.291 Y45.626 E0.40118
G1 X85.29 Y74.374 E1.76371
G1 X85.25 Y75.163 E1.80115
G1 X85.13 Y75.944 E1.8386
G1 X84.933 Y76.708 E1.876
G1 X84.658 Y77.449 E1.91346
G1 X84.311 Y78.158 E1.95087
G1 X83.893 Y78.828 E1.9883
G1 X83.41 Y79.453 E2.02573
G1 X83.005 Y79.889 E2.05394
G1 X82.888 Y80.006 E2.06178
G1 X82.302 Y80.536 E2.09923
G1 X81.666 Y81.003 E2.13663
G1 X80.986 Y81.404 E2.17404
G1 X80.268 Y81.734 E2.21149
G1 X79.521 Y81.989 E2.2489
G1 X78.752 Y82.168 E2.28633
G1 X77.968 Y82.268 E2.32379
G1 X77.373 Y82.291 E2.35201
G1 X22.626 Y82.291 E4.94678
G1 X21.837 Y82.251 E4.98422
G1 X21.057 Y82.132 E5.02162
G1 X20.292 Y81.934 E5.05907
G1 X19.552 Y81.66 E5.09647
G1 X18.843 Y81.312 E5.1339
G1 X18.172 Y80.894 E5.17137
G1 X17.548 Y80.411 E5.20877
G1 X17.111 Y80.006 E5.23701
G1 X16.994 Y79.889 E5.24485
G1 X16.464 Y79.303 E5.2823
G1 X15.997 Y78.667 E5.3197
G1 X15.596 Y77.987 E5.35711
G1 X15.266 Y77.269 E5.39457
G1 X15.011 Y76.522 E5.43198
G1 X14.832 Y75.753 E5.4694
G1 X14.732 Y74.969 E5.50686
G1 X14.709 Y74.374 E5.53508
G1 X14.71 Y45.626 E6.89761
G1 X14.75 Y44.837 E6.93505
G1 X14.87 Y44.056 E6.97251
G1 X15.067 Y43.292 E7.0099
G1 X15.342 Y42.551 E7.04736
G1 X15.689 Y41.842 E7.08477
G1 X16.107 Y41.172 E7.1222
G1 X16.59 Y40.547 E7.15964
G1 X16.995 Y40.111 E7.18784
G1 X17.112 Y39.994 E7.19568
G1 X17.698 Y39.464 E7.23313
G1 X18.334 Y38.997 E7.27053
G1 X19.014 Y38.596 E7.30795
G1 X19.732 Y38.266 E7.3454
G1 X20.479 Y38.011 E7.38281
G1 X21.248 Y37.832 E7.42023
G1 X22.032 Y37.732 E7.45769
G1 X22.627 Y37.709 E7.48591
G1 X77.374 Y37.709 E10.08068
G1 X78.163 Y37.749 E10.11813
G1 X78.943 Y37.868 E10.15552
G1 X79.708 Y38.066 E10.19298
G1 X80.448 Y38.34 E10.23038
G1 X81.157 Y38.688 E10.26781
G0 F3600 X81.05 Y39.087
G1 F1800 X81.697 Y39.503 E10.30426
G1 X82.297 Y39.984 E10.34071
G1 X82.607 Y40.276 E10.3609
G1 X82.724 Y40.393 E10.36874
G1 X83.238 Y40.965 E10.40519
G1 X83.691 Y41.587 E10.44166
G1 X84.077 Y42.252 E10.4781
G1 X84.392 Y42.954 E10.51457
G1 X84.632 Y43.685 E10.55103
G1 X84.795 Y44.436 E10.58746
G1 X84.879 Y45.201 E10.62393
G1 X84.891 Y45.626 E10.64408
G1 X84.89 Y74.374 E12.00661
G1 X84.85 Y75.142 E12.04306
G1 X84.73 Y75.902 E12.07953
G1 X84.533 Y76.645 E12.11596
G1 X84.259 Y77.364 E12.15243
G1 X83.912 Y78.051 E12.18891
G1 X83.496 Y78.697 E12.22533
G1 X83.014 Y79.297 E12.2618
G1 X82.723 Y79.607 E12.28195
G1 X82.606 Y79.724 E12.2898
G1 X82.034 Y80.238 E12.32624
G1 X81.412 Y80.691 E12.36271
G1 X80.747 Y81.077 E12.39916
G1 X80.045 Y81.392 E12.43563
G1 X79.314 Y81.632 E12.47209
G1 X78.563 Y81.795 E12.50851
G1 X77.798 Y81.879 E12.54499
G1 X77.373 Y81.891 E12.56514
G1 X22.626 Y81.891 E15.15991
G1 X21.858 Y81.851 E15.19636
G1 X21.098 Y81.732 E15.23282
G1 X20.355 Y81.534 E15.26927
G1 X19.636 Y81.26 E15.30573
G1 X18.95 Y80.913 E15.34217
G1 X18.303 Y80.497 E15.37863
G1 X17.703 Y80.016 E15.41507
G1 X17.393 Y79.724 E15.43526
G1 X17.276 Y79.607 E15.4431
G1 X16.762 Y79.035 E15.47955
G1 X16.309 Y78.413 E15.51602
G1 X15.923 Y77.748 E15.55246
G1 X15.608 Y77.046 E15.58893
G1 X15.368 Y76.315 E15.62539
G1 X15.205 Y75.564 E15.66182
G1 X15.121 Y74.799 E15.69829
G1 X15.109 Y74.374 E15.71844
G1 X15.11 Y45.626 E17.08098
G1 X15.15 Y44.858 E17.11743
G1 X15.27 Y44.098 E17.15389
G1 X15.467 Y43.355 E17.19032
G1 X15.741 Y42.636 E17.22679
G1 X16.088 Y41.949 E17.26327
G1 X16.504 Y41.303 E17.29969
G1 X16.986 Y40.703 E17.33616
G1 X17.277 Y40.393 E17.35632
G1 X17.394 Y40.276 E17.36416
G1 X17.966 Y39.762 E17.40061
G1 X18.588 Y39.309 E17.43708
G1 X19.253 Y38.923 E17.47352
G1 X19.955 Y38.608 E17.50999
G1 X20.686 Y38.368 E17.54645
G1 X21.437 Y38.205 E17.58288
G1 X22.202 Y38.121 E17.61935
G1 X22.627 Y38.109 E17.6395
G1 X77.374 Y38.109 E20.23427
G1 X78.142 Y38.149 E20.27072
G1 X78.902 Y38.268 E20.30718
G1 X79.645 Y38.466 E20.34363
G1 X80.364 Y38.74 E20.3801
G1 X81.05 Y39.087 E20.41653
G0 F3600 X80.94 Y39.486
G1 F1800 X81.563 Y39.901 E20.45201
G1 X82.324 Y40.559 E20.49969
G1 X82.441 Y40.676 E20.50753
G1 X82.941 Y41.233 E20.54301
G1 X83.378 Y41.839 E20.57842
G1 X83.749 Y42.489 E20.61389
G1 X84.048 Y43.175 E20.64936
G1 X84.272 Y43.889 E20.68483
G1 X84.419 Y44.622 E20.72026
G1 X84.491 Y45.626 E20.76797
G1 X84.49 Y74.374 E22.1305
G1 X84.45 Y75.121 E22.16595
G1 X84.331 Y75.86 E22.20143
G1 X84.133 Y76.581 E22.23687
G1 X83.859 Y77.277 E22.27232
G1 X83.513 Y77.941 E22.30781
G1 X83.098 Y78.563 E22.34325
G1 X82.44 Y79.324 E22.39093
G1 X82.323 Y79.441 E22.39877
G1 X81.766 Y79.941 E22.43425
G1 X81.16 Y80.378 E22.46966
G1 X80.51 Y80.749 E22.50513
G1 X79.824 Y81.048 E22.5406
G1 X79.11 Y81.272 E22.57606
G1 X78.377 Y81.419 E22.6115
G1 X77.373 Y81.491 E22.6592
G1 X22.626 Y81.491 E25.25397
G1 X21.879 Y81.451 E25.28943
G1 X21.141 Y81.332 E25.32486
G1 X20.419 Y81.134 E25.36034
G1 X19.723 Y80.861 E25.39578
G1 X19.06 Y80.514 E25.43124
G1 X18.437 Y80.099 E25.46672
G1 X17.676 Y79.441 E25.5144
G1 X17.559 Y79.324 E25.52225
G1 X17.059 Y78.767 E25.55772
G1 X16.622 Y78.161 E25.59313
G1 X16.251 Y77.511 E25.62861
G1 X15.952 Y76.825 E25.66407
G1 X15.728 Y76.111 E25.69954
G1 X15.581 Y75.378 E25.73497
G1 X15.509 Y74.374 E25.78268
G1 X15.51 Y45.626 E27.14521
G1 X15.55 Y44.879 E27.18067
G1 X15.669 Y44.14 E27.21614
G1 X15.867 Y43.419 E27.25158
G1 X16.141 Y42.723 E27.28703
G1 X16.487 Y42.059 E27.32252
G1 X16.902 Y41.437 E27.35796
G1 X17.56 Y40.676 E27.40564
G1 X17.677 Y40.559 E27.41348
G1 X18.234 Y40.059 E27.44896
G1 X18.84 Y39.622 E27.48437
G1 X19.49 Y39.251 E27.51984
G1 X20.176 Y38.952 E27.55531
G1 X20.89 Y38.728 E27.59077
G1 X21.623 Y38.581 E27.62621
G1 X22.627 Y38.509 E27.67392
G1 X77.374 Y38.509 E30.26869
G1 X78.121 Y38.549 E30.30414
G1 X78.859 Y38.668 E30.33957
G1 X79.581 Y38.866 E30.37506
G1 X80.277 Y39.139 E30.41049
G1 X80.94 Y39.486 E30.44596
G0 F3600 X80.827 Y39.884
G1 F1800 X81.424 Y40.298 E30.48039
G1 X82.041 Y40.842 E30.51938
G1 X82.158 Y40.959 E30.52722
G1 X82.642 Y41.5 E30.56162
G1 X83.065 Y42.091 E30.59607
G1 X83.419 Y42.725 E30.63049
G1 X83.702 Y43.394 E30.66491
G1 X83.91 Y44.09 E30.69934
G1 X84.04 Y44.805 E30.73379
G1 X84.091 Y45.626 E30.77277
G1 X84.09 Y74.374 E32.1353
G1 X84.05 Y75.099 E32.16972
G1 X83.931 Y75.816 E32.20417
G1 X83.733 Y76.515 E32.2386
G1 X83.46 Y77.188 E32.27302
G1 X83.115 Y77.827 E32.30744
G1 X82.701 Y78.424 E32.34187
G1 X82.157 Y79.041 E32.38086
G1 X82.04 Y79.158 E32.3887
G1 X81.499 Y79.642 E32.4231
G1 X80.908 Y80.065 E32.45755
G1 X80.274 Y80.419 E32.49197
G1 X79.605 Y80.702 E32.52639
G1 X78.909 Y80.91 E32.56082
G1 X78.194 Y81.04 E32.59527
G1 X77.373 Y81.091 E32.63425
G1 X22.626 Y81.091 E35.22903
G1 X21.901 Y81.051 E35.26344
G1 X21.184 Y80.932 E35.29789
G1 X20.485 Y80.734 E35.33232
G1 X19.812 Y80.461 E35.36674
G1 X19.173 Y80.116 E35.40116
G1 X18.576 Y79.702 E35.43559
G1 X17.959 Y79.158 E35.47458
G1 X17.842 Y79.041 E35.48242
G1 X17.358 Y78.5 E35.51683
G1 X16.935 Y77.909 E35.55127
G1 X16.581 Y77.275 E35.58569
G1 X16.298 Y76.606 E35.62012
G1 X16.09 Y75.91 E35.65455
G1 X15.96 Y75.195 E35.68899
G1 X15.909 Y74.374 E35.72798
G1 X15.91 Y45.626 E37.09051
G1 X15.95 Y44.901 E37.12492
G1 X16.069 Y44.184 E37.15937
G1 X16.267 Y43.485 E37.1938
G1 X16.54 Y42.812 E37.22822
G1 X16.885 Y42.173 E37.26264
G1 X17.299 Y41.576 E37.29708
G1 X17.843 Y40.959 E37.33606
G1 X17.96 Y40.842 E37.3439
G1 X18.501 Y40.358 E37.37831
G1 X19.092 Y39.935 E37.41275
G1 X19.726 Y39.581 E37.44717
G1 X20.395 Y39.298 E37.4816
G1 X21.091 Y39.09 E37.51603
G1 X21.806 Y38.96 E37.55047
G1 X22.627 Y38.909 E37.58946
G1 X77.374 Y38.909 E40.18423
G1 X78.099 Y38.949 E40.21864
G1 X78.816 Y39.068 E40.25309
G1 X79.515 Y39.266 E40.28752
G1 X80.188 Y39.539 E40.32195
G1 X80.827 Y39.884 E40.35636
G0 F3600 X80.095 Y39.938
G1 F1800 X80.709 Y40.283 E40.38974
G1 X81.28 Y40.694 E40.42309
G1 X81.758 Y41.125 E40.45359
G1 X81.875 Y41.242 E40.46144
G1 X82.344 Y41.767 E40.4948
G1 X82.75 Y42.342 E40.52816
G1 X83.088 Y42.96 E40.56155
G1 X83.355 Y43.611 E40.5949
G1 X83.545 Y44.289 E40.62827
G1 X83.658 Y44.984 E40.66164
G1 X83.691 Y45.626 E40.69211
G1 X83.69 Y74.374 E42.05464
G1 X83.65 Y75.077 E42.08801
G1 X83.531 Y75.771 E42.12139
G1 X83.333 Y76.447 E42.15477
G1 X83.061 Y77.096 E42.18812
G1 X82.716 Y77.71 E42.22151
G1 X82.304 Y78.281 E42.25488
G1 X81.874 Y78.758 E42.28532
G1 X81.757 Y78.875 E42.29316
G1 X81.232 Y79.344 E42.32652
G1 X80.657 Y79.75 E42.35988
G1 X80.039 Y80.088 E42.39327
G1 X79.388 Y80.355 E42.42662
G1 X78.71 Y80.545 E42.45999
G1 X78.015 Y80.658 E42.49336
G1 X77.373 Y80.691 E42.52383
G1 X22.626 Y80.691 E45.1186
G1 X21.923 Y80.651 E45.15198
G1 X21.229 Y80.532 E45.18535
G1 X20.554 Y80.334 E45.21869
G1 X19.905 Y80.062 E45.25204
G1 X19.291 Y79.717 E45.28542
G1 X18.72 Y79.306 E45.31877
G1 X18.242 Y78.875 E45.34927
G1 X18.125 Y78.758 E45.35711
G1 X17.656 Y78.233 E45.39048
G1 X17.25 Y77.658 E45.42384
G1 X16.912 Y77.04 E45.45722
G1 X16.645 Y76.389 E45.49057
G1 X16.455 Y75.711 E45.52395
G1 X16.342 Y75.016 E45.55732
G1 X16.309 Y74.374 E45.58779
G1 X16.31 Y45.626 E46.95032
G1 X16.35 Y44.923 E46.98369
G1 X16.469 Y44.229 E47.01706
G1 X16.667 Y43.553 E47.05045
G1 X16.939 Y42.904 E47.0838
G1 X17.284 Y42.29 E47.11718
G1 X17.696 Y41.719 E47.15055
G1 X18.126 Y41.242 E47.18099
G1 X18.243 Y41.125 E47.18883
G1 X18.768 Y40.656 E47.2222
G1 X19.343 Y40.25 E47.25556
G1 X19.961 Y39.912 E47.28895
G1 X20.612 Y39.645 E47.32229
G1 X21.29 Y39.455 E47.35567
G1 X21.985 Y39.342 E47.38904
G1 X22.627 Y39.309 E47.41951
G1 X77.374 Y39.309 E50.01428
G1 X78.077 Y39.349 E50.04765
G1 X78.771 Y39.468 E50.08103
G1 X79.446 Y39.666 E50.11437
G1 X80.095 Y39.938 E50.14772
G0 F3600 X80 Y40.337
G1 F1800 X80.588 Y40.681 E50.18001
G1 X81.132 Y41.091 E50.21229
G1 X81.475 Y41.408 E50.23443
G1 X81.592 Y41.525 E50.24227
G1 X82.045 Y42.034 E50.27456
G1 X82.434 Y42.592 E50.3068
G1 X82.756 Y43.192 E50.33908
G1 X83.005 Y43.826 E50.37136
G1 X83.178 Y44.485 E50.40365
G1 X83.272 Y45.159 E50.43591
G1 X83.291 Y45.626 E50.45806
G1 X83.29 Y74.374 E51.82059
G1 X83.25 Y75.054 E51.85287
G1 X83.131 Y75.724 E51.88513
G1 X82.934 Y76.376 E51.91741
G1 X82.661 Y77 E51.94969
G1 X82.318 Y77.588 E51.98195
G1 X81.908 Y78.132 E52.01424
G1 X81.591 Y78.475 E52.03638
G1 X81.474 Y78.592 E52.04422
G1 X80.965 Y79.045 E52.07651
G1 X80.407 Y79.434 E52.10875
G1 X79.807 Y79.756 E52.14103
G1 X79.173 Y80.005 E52.17331
G1 X78.514 Y80.178 E52.2056
G1 X77.84 Y80.272 E52.23786
G1 X77.373 Y80.291 E52.26001
G1 X22.626 Y80.291 E54.85478
G1 X21.946 Y80.251 E54.88706
G1 X21.276 Y80.132 E54.91932
G1 X20.624 Y79.935 E54.9516
G1 X20 Y79.663 E54.98386
G1 X19.412 Y79.319 E55.01615
G1 X18.868 Y78.909 E55.04843
G1 X18.525 Y78.592 E55.07057
G1 X18.408 Y78.475 E55.07841
G1 X17.955 Y77.966 E55.11071
G1 X17.566 Y77.408 E55.14295
G1 X17.244 Y76.808 E55.17522
G1 X16.995 Y76.174 E55.2075
G1 X16.822 Y75.515 E55.2398
G1 X16.728 Y74.841 E55.27205
G1 X16.709 Y74.374 E55.2942
G1 X16.71 Y45.626 E56.65673
G1 X16.75 Y44.946 E56.68902
G1 X16.869 Y44.276 E56.72127
G1 X17.066 Y43.624 E56.75355
G1 X17.339 Y43 E56.78583
G1 X17.682 Y42.412 E56.8181
G1 X18.092 Y41.868 E56.85038
G1 X18.409 Y41.525 E56.87252
G1 X18.526 Y41.408 E56.88036
G1 X19.035 Y40.955 E56.91266
G1 X19.593 Y40.566 E56.9449
G1 X20.193 Y40.244 E56.97717
G1 X20.827 Y39.995 E57.00945
G1 X21.486 Y39.822 E57.04174
G1 X22.16 Y39.728 E57.074
G1 X22.627 Y39.709 E57.09615
G1 X77.374 Y39.709 E59.69092
G1 X78.054 Y39.749 E59.72321
G1 X78.724 Y39.868 E59.75546
G1 X79.376 Y40.065 E59.78774
G1 X80 Y40.337 E59.82
G0 F3600 X79.901 Y40.737
G1 F1800 X80.462 Y41.079 E59.85114
G1 X81.192 Y41.691 E59.89629
G1 X81.309 Y41.808 E59.90414
G1 X81.745 Y42.3 E59.93529
G1 X82.117 Y42.841 E59.96641
G1 X82.421 Y43.423 E59.99753
G1 X82.652 Y44.038 E60.02867
G1 X82.807 Y44.677 E60.05983
G1 X82.891 Y45.626 E60.10499
G1 X82.89 Y74.374 E61.46752
G1 X82.85 Y75.03 E61.49867
G1 X82.731 Y75.676 E61.5298
G1 X82.534 Y76.303 E61.56095
G1 X82.262 Y76.901 E61.59209
G1 X81.92 Y77.462 E61.62323
G1 X81.308 Y78.192 E61.66838
G1 X81.191 Y78.309 E61.67622
G1 X80.699 Y78.745 E61.70737
G1 X80.158 Y79.117 E61.73849
G1 X79.576 Y79.421 E61.76961
G1 X78.961 Y79.652 E61.80075
G1 X78.322 Y79.807 E61.83191
G1 X77.373 Y79.891 E61.87707
G1 X22.626 Y79.891 E64.47184
G1 X21.97 Y79.851 E64.50299
G1 X21.324 Y79.732 E64.53412
G1 X20.697 Y79.535 E64.56527
G1 X20.099 Y79.263 E64.59641
G1 X19.538 Y78.921 E64.62755
G1 X18.808 Y78.309 E64.6727
G1 X18.691 Y78.192 E64.68054
G1 X18.255 Y77.7 E64.7117
G1 X17.883 Y77.159 E64.74282
G1 X17.579 Y76.577 E64.77394
G1 X17.348 Y75.962 E64.80507
G1 X17.193 Y75.323 E64.83624
G1 X17.109 Y74.374 E64.88139
G1 X17.11 Y45.626 E66.24392
G1 X17.15 Y44.97 E66.27507
G1 X17.269 Y44.324 E66.3062
G1 X17.466 Y43.697 E66.33735
G1 X17.738 Y43.099 E66.36849
G1 X18.08 Y42.538 E66.39963
G1 X18.692 Y41.808 E66.44478
G1 X18.809 Y41.691 E66.45262
G1 X19.301 Y41.255 E66.48378
G1 X19.842 Y40.883 E66.5149
G1 X20.424 Y40.579 E66.54602
G1 X21.039 Y40.348 E66.57715
G1 X21.678 Y40.193 E66.60832
G1 X22.627 Y40.109 E66.65347
G1 X77.374 Y40.109 E69.24825
G1 X78.03 Y40.149 E69.27939
G1 X78.676 Y40.268 E69.31053
G1 X79.303 Y40.465 E69.34168
G1 X79.901 Y40.737 E69.37281
G0 F3600 X79.798 Y41.136
G1 F1800 X80.33 Y41.476 E69.40274
G1 X80.91 Y41.973 E69.43894
G1 X81.027 Y42.09 E69.44678
G1 X81.444 Y42.565 E69.47674
G1 X81.799 Y43.088 E69.5067
G1 X82.085 Y43.652 E69.53667
G1 X82.297 Y44.247 E69.56661
G1 X82.433 Y44.865 E69.5966
G1 X82.491 Y45.626 E69.63277
G1 X82.49 Y74.374 E70.9953
G1 X82.45 Y75.005 E71.02527
G1 X82.331 Y75.626 E71.05524
G1 X82.134 Y76.227 E71.08521
G1 X81.863 Y76.798 E71.11517
G1 X81.522 Y77.33 E71.14512
G1 X81.026 Y77.91 E71.18129
G1 X80.909 Y78.027 E71.18913
G1 X80.434 Y78.444 E71.21909
G1 X79.911 Y78.799 E71.24905
G1 X79.347 Y79.085 E71.27902
G1 X78.752 Y79.297 E71.30896
G1 X78.134 Y79.433 E71.33895
G1 X77.373 Y79.491 E71.37512
G1 X22.626 Y79.491 E73.96989
G1 X21.995 Y79.451 E73.99986
G1 X21.374 Y79.332 E74.02983
G1 X20.774 Y79.135 E74.05976
G1 X20.202 Y78.864 E74.08976
G1 X19.67 Y78.524 E74.11968
G1 X19.09 Y78.027 E74.15588
G1 X18.973 Y77.91 E74.16373
G1 X18.556 Y77.435 E74.19368
G1 X18.201 Y76.912 E74.22364
G1 X17.915 Y76.348 E74.25361
G1 X17.703 Y75.753 E74.28355
G1 X17.567 Y75.135 E74.31354
G1 X17.509 Y74.374 E74.34971
G1 X17.51 Y45.626 E75.71225
G1 X17.55 Y44.995 E75.74221
G1 X17.669 Y44.374 E75.77218
G1 X17.866 Y43.773 E75.80216
G1 X18.137 Y43.202 E75.83211
G1 X18.478 Y42.67 E75.86206
G1 X18.974 Y42.09 E75.89823
G1 X19.091 Y41.973 E75.90608
G1 X19.566 Y41.556 E75.93603
G1 X20.089 Y41.201 E75.96599
G1 X20.653 Y40.915 E75.99596
G1 X21.248 Y40.703 E76.0259
G1 X21.866 Y40.567 E76.05589
G1 X22.627 Y40.509 E76.09206
G1 X77.374 Y40.509 E78.68684
G1 X78.005 Y40.549 E78.7168
G1 X78.626 Y40.668 E78.74677
G1 X79.226 Y40.865 E78.7767
G1 X79.798 Y41.136 E78.8067
G0 F3600 X79.69 Y41.535
G1 F1800 X80.193 Y41.874 E78.83545
G1 X80.627 Y42.256 E78.86285
G1 X80.744 Y42.373 E78.8707
G1 X81.143 Y42.829 E78.89941
G1 X81.479 Y43.334 E78.92816
G1 X81.746 Y43.878 E78.95688
G1 X81.939 Y44.453 E78.98563
G1 X82.055 Y45.048 E79.01436
G1 X82.091 Y45.626 E79.04181
G1 X82.09 Y74.374 E80.40434
G1 X82.05 Y74.979 E80.43308
G1 X81.931 Y75.574 E80.46184
G1 X81.734 Y76.147 E80.49055
G1 X81.464 Y76.69 E80.5193
